X: 0
T: The New Green Dress
C: Anna Tabbush
M: 2/4
L: 1/8
K: Bm
|:"Bm"f>g fe/d/ | "A"ec AB/c/ | "G"dB GB | "F#m/A"cA FD | 
"Bm"f>g fe/d/ | "A"ec AB/c/ | "G"dB "A"cA |1 "Bm"B2 B2 :|2 "G"B2 BB/c/ ||
|:"Bm"dB B"G"Lf | BB e/d/c/B/ | "A"cA eA | "D"fA "A/C#"eA |
 "G"dBB"Bm"Lf | BB e/d/c/B/ | "A7/G"cA "A"ed/c/ | "Bm"B2 B2 :|